packages/icons/assets/Ungroup.svg

<svg xmlns="http://www.w3.org/2000/svg" viewBox="0 0 16 16"><path fill="#414141" d="M8.5305 2.997v5.5h-5.561v6.506h12v-12zm0 11.006h-4.561V9.497h4.561zm5.439 0h-4.439V9.497h4.439zm0-5.506h-4.439V4.003h4.439zm-6.939-7.5h-6v6h6zm-1 5h-4v-4h4z"/></svg>

<svg xmlns="http://www.w3.org/2000/svg" viewBox="0 0 16 16"><path fill="#414141" d="M8.53 3v5.5H2.97V15h12V3zm0 11H3.97V9.5h4.56zm5.44 0H9.53V9.5h4.44zm0-5.5H9.53V4h4.44zM7.03 1h-6v6h6zm-1 5h-4V2h4z"/></svg>
